!!!COM: Bach, Johann Sebastian
!!!CDT: 1685/3//-1750/7/28/
!!!OTL@@DE: Von Gott will ich nicht lassen
!!!AGN: 4-Part Chorale
!!!SCT: BH 191
!!!SCT: BWV 73
!!!YEC: Copyright 2001 by Craig Stuart Sapp
!!!license: GNU General Public License (http://www.gnu.org/copyleft/gpl.html)
!!!SMA: 371 Bach Chorales, edited by Ludwig Erk, C.F. Peters
!!!PDT: 1850, 1865
!!!ONB: Harmony and Root analysis done manually by Craig Sapp
**kern	**kern	**kern	**kern	**root	**harm
!bass	!tenor	!alto	!soprno	!	!
*Iorgan	*Iorgan	*Iorgan	*Iorgan	*Iorgan	*
*clefF4	*clefF4	*clefG2	*clefG2	*	*
*k[]	*k[]	*k[]	*k[]	*k[]	*k[]
*a:	*a:	*a:	*a:	*a:	*a:
*M4/4	*M4/4	*M4/4	*M4/4	*M4/4	*M4/4
*met(C)	*met(C)	*met(C)	*met(C)	*met(C)	*met(C)
*MM60	*MM60	*MM60	*MM60	*MM60	*MM60
*>[A,A,B]	*>[A,A,B]	*>[A,A,B]	*>[A,A,B]	*>[A,A,B]	*>[A,A,B]
*>A	*>A	*>A	*>A	*>A	*>A
4AA	4A	4c	4e	4AA	i
=1	=1	=1	=1	=1	=1
4A	4c	4e	4a	4AA	i
4G#	4B	4e	4b	4EE	Vb
4A	4A	4e	4cc	4AA	i
4F#	4A	4d	4dd	4DD	Vb/-VII
=2	=2	=2	=2	=2	=2
4G	4G	8d	2b	4GG	-VII
.	.	8e	.	.	.
4D#	4F#	4f#	.	4BB	Vb/V
4E;	4B;	4e;	4g;	4EE;	v;
4C	4c	4e	4g	4CC	III
=3	=3	=3	=3	=3	=3
4Fn	4A	4c	4a	4FF	VI
4D	4F	4d	4a	4DD	iv
4GG#	4E	8d	4b	2EE	V7b
.	.	8fn	.	.	.
4GG#	4E	8e	4b	.	.
.	.	8d	.	.	.
=4	=4	=4	=4	=4	=4
2.AA;	2.A;	2.c;	2.e;	2.AA;	i;
=:|!	=:|!	=:|!	=:|!	=:|!	=:|!
*>B	*>B	*>B	*>B	*>B	*>B
4A	4c	4a	4ee	4AA	i
=5	=5	=5	=5	=5	=5
4F	4d	4a	4dd	4DD	iv
4D	4f	4a	4cc	4DD	iv7
4G	4e	4g	4cc	4CC	IIIc
4GG	4d	4g	4b	4GG	-VII
=6	=6	=6	=6	=6	=6
2.C;	2.e;	2.g;	2.cc;	2.CC;	III;
4G	4d	4g	4b	4GG	-VII
!!linebreak: 2
=7	=7	=7	=7	=7	=7
4E	4.c	4g	4cc	4CC	IIIb
4D	.	4f	4dd	4BB	iiob
.	[8B	.	.	.	.
4C	8B]	4g	4ee	4CC	III
.	8G	.	.	.	.
4AA	4c	8a	4ee	4AA	i
.	.	8g	.	.	.
=8	=8	=8	=8	=8	=8
2D	4c	8f#	2dd	2DD	V7/-VII
.	.	8e	.	.	.
.	8B	4f#	.	.	.
.	8A	.	.	.	.
4GG;	4G;	4d;	4b;	4GG;	-VII;
4G	4d	4g	4b	4GG	-VII
=9	=9	=9	=9	=9	=9
4E	4c	4g	4cc	4CC	IIIb
4C	4G	4e	4b	4CC	III7
4F	8A	4c	4a	4FF	VI
.	8B	.	.	.	.
4E	4c	[4f	4a	4FF	VI7
=10	=10	=10	=10	=10	=10
4D	4d	8f]	4b	4BB	iiob
.	.	8e	.	.	.
4D#	4c	4f#	4a	4DD#	vii7/V
4E;	4B;	4e;	4g;	4EE;	v;
4BB	4G	4d	4fn	4GG	V7/III
=11	=11	=11	=11	=11	=11
4C	4G	4c	4e	4CC	III
4F	8A	4d	4a	4DD	ivb
.	8B	.	.	.	.
4E	8c	4e	4a	4AA	ic
.	16B	.	.	.	.
.	16A	.	.	.	.
4EE	4B	4e	4g#	4EE	V
=12	=12	=12	=12	=12	=12
2.AA;	2.c#;	2.e;	2.a;	2.AA;	I;
==	==	==	==	==	==
*-	*-	*-	*-	*-	*-
!!chor2scor: -l 2 -s 0.6 -o %b.pmx
